public/svg/white/btdx.svg

<svg width="32" height="32" viewBox="0 0 32 32" version="1.1" xmlns="http://www.w3.org/2000/svg" xmlns:xlink="http://www.w3.org/1999/xlink"><title>white/btdx</title><desc>Created with Sketch.</desc><g id="white/btdx" stroke="none" stroke-width="1" fill="none" fill-rule="evenodd"><path d="M16,32 C7.163444,32 0,24.836556 0,16 C0,7.163444 7.163444,0 16,0 C24.836556,0 32,7.163444 32,16 C32,24.836556 24.836556,32 16,32 Z M16,3 C8.82114165,3 3,8.82114165 3,16 C3,23.1788584 8.82114165,29 16,29 C23.1788584,29 29,23.1788584 29,16 C29,8.82114165 23.1788584,3 16,3 Z M15.9615222,28.0215645 C9.30211416,28.0215645 3.90422833,22.6236786 3.90422833,15.9642706 C3.90422833,9.30486258 9.30211416,3.90697674 15.9615222,3.90697674 C22.6209302,3.90697674 28.0188161,9.30486258 28.0188161,15.9642706 C28.0188161,22.6236786 22.6209302,28.0215645 15.9615222,28.0215645 Z M15.9615222,4.94038055 C9.87378436,4.94038055 4.94038055,9.87378436 4.94038055,15.9615222 C4.94038055,22.04926 9.87378436,26.9854123 15.9615222,26.9854123 C22.04926,26.9854123 26.9854123,22.04926 26.9854123,15.9615222 C26.9854123,9.87378436 22.04926,4.94038055 15.9615222,4.94038055 Z M15.9972516,6.68562368 C19.0232558,6.68562368 21.4748414,9.1372093 21.4748414,12.1632135 C21.4748414,12.8255814 21.3566596,13.4632135 21.1395349,14.0513742 C20.9389006,14.0183932 20.7327696,13.9991543 20.5211416,13.9991543 C19.7323467,13.9991543 19.0040169,14.2547569 18.4131078,14.6835095 C19.0754757,14.0486258 19.4877378,13.1553911 19.4877378,12.1659619 C19.4877378,10.2365751 17.9238901,8.67272727 15.9945032,8.66997886 C14.1860465,8.66997886 12.6991543,10.0469345 12.5205074,11.8086681 C12.179704,11.748203 11.8306554,11.715222 11.4706131,11.715222 C11.151797,11.715222 10.8384778,11.7399577 10.5334038,11.7894292 C10.7257928,8.93932347 13.0976744,6.68562368 15.9972516,6.68562368 Z M18.0118393,16.9784355 L16.0742072,15.8186047 C15.9450317,15.741649 15.7856237,15.741649 15.6564482,15.8213531 L13.9551797,16.8712474 C13.8205074,16.9536998 13.7463002,17.1103594 13.7682875,17.267019 C13.7875264,17.412685 13.7957717,17.5610994 13.7875264,17.7150106 C13.7270613,18.9133192 12.7403805,19.8807611 11.5393235,19.9164905 C10.222833,19.9577167 9.13995772,18.8995772 9.14270613,17.5913319 C9.14545455,16.3298097 10.1706131,15.2881607 11.4293869,15.2689218 C12.132981,15.2579281 12.7678647,15.5602537 13.2021142,16.046723 C13.3257928,16.1868922 13.5319239,16.2171247 13.6940803,16.1264271 L15.3321353,15.2084567 C15.4585624,15.1369979 15.5382664,15.0023256 15.5382664,14.8566596 L15.5382664,14.7577167 C15.5382664,14.5845666 15.4255814,14.4306554 15.2606765,14.3756871 C14.3372093,14.0678647 13.6693446,13.1966173 13.6693446,12.1687104 C13.6693446,10.846723 14.7714588,9.7858351 16.1044397,9.84630021 C17.2697674,9.9012685 18.2289641,10.832981 18.3114165,11.9983087 C18.3938689,13.1526427 17.6325581,14.1448203 16.5799154,14.4169133 C16.4012685,14.4636364 16.272093,14.620296 16.272093,14.8071882 L16.272093,14.8236786 C16.272093,14.9638478 16.3463002,15.0930233 16.464482,15.1672304 L18.1849894,16.22537 C18.3553911,16.3325581 18.5807611,16.2940803 18.7071882,16.1374207 C19.144186,15.5932347 19.820296,15.2496829 20.5761099,15.2661734 C21.7964059,15.2936575 22.7995772,16.2830867 22.8408034,17.5116279 C22.8875264,18.872093 21.7634249,19.9852008 20.397463,19.9164905 C19.2458774,19.8587738 18.3004228,18.9463002 18.2014799,17.797463 C18.1877378,17.6490486 18.1904863,17.5061311 18.2042283,17.3632135 C18.2207188,17.2065539 18.1437632,17.0581395 18.0118393,16.9784355 Z M11.4651163,23.0112051 C8.46934461,23.0112051 6.04249471,20.5843552 6.04249471,17.5885835 C6.04249471,14.5928118 8.46934461,12.1659619 11.4651163,12.1659619 C11.8196617,12.1659619 12.1659619,12.1989429 12.5012685,12.2649049 C12.5287526,13.2158562 12.935518,14.0706131 13.5758985,14.6862579 C12.9849894,14.2547569 12.2566596,13.9991543 11.4678647,13.9991543 C9.48625793,13.9991543 7.87843552,15.6069767 7.87843552,17.5885835 C7.87843552,19.5701903 9.48625793,21.1780127 11.4678647,21.1780127 C12.9794926,21.1780127 14.2712474,20.2435518 14.7989429,18.9188161 C14.9693446,19.6636364 15.2854123,20.3534884 15.7114165,20.9608879 C14.7164905,22.2114165 13.1856237,23.0112051 11.4651163,23.0112051 Z M20.5211416,23.0112051 C17.6490486,23.0112051 15.2991543,20.7794926 15.1095137,17.956871 C15.3980973,18.0008457 15.694926,18.022833 15.9945032,18.022833 C16.3215645,18.022833 16.6403805,17.9980973 16.9509514,17.9458774 C17.1295983,19.7598309 18.6604651,21.1780127 20.5211416,21.1780127 C22.5027484,21.1780127 24.1105708,19.5701903 24.1105708,17.5885835 C24.1105708,15.9505285 23.0139535,14.5680761 21.5133192,14.1393235 C21.7167019,13.5731501 21.8348837,12.9630021 21.8513742,12.3308668 C24.2012685,12.9217759 25.9437632,15.051797 25.9437632,17.5885835 C25.9437632,20.5843552 23.5169133,23.0112051 20.5211416,23.0112051 Z" id="Combined-Shape" fill="#FFF" fill-rule="nonzero"/></g></svg>

<svg width="32" height="32" viewBox="0 0 32 32" xmlns="http://www.w3.org/2000/svg"><path d="M16 32C7.163 32 0 24.837 0 16S7.163 0 16 0s16 7.163 16 16-7.163 16-16 16zm0-29C8.821 3 3 8.821 3 16s5.821 13 13 13 13-5.821 13-13S23.179 3 16 3zm-.038 25.022c-6.66 0-12.058-5.398-12.058-12.058S9.302 3.907 15.962 3.907c6.659 0 12.057 5.398 12.057 12.057 0 6.66-5.398 12.058-12.057 12.058zm0-23.082C9.874 4.94 4.94 9.874 4.94 15.962c0 6.087 4.934 11.023 11.022 11.023 6.087 0 11.023-4.936 11.023-11.023 0-6.088-4.936-11.022-11.023-11.022zm.035 1.746a5.477 5.477 0 015.143 7.365 3.579 3.579 0 00-2.726.632 3.477 3.477 0 001.074-2.517 3.497 3.497 0 00-3.493-3.496 3.495 3.495 0 00-3.474 3.139 5.99 5.99 0 00-1.988-.02 5.478 5.478 0 015.464-5.103zm2.015 10.292l-1.938-1.16a.4.4 0 00-.418.003l-1.7 1.05a.4.4 0 00-.188.396 2.332 2.332 0 01-2.229 2.65 2.323 2.323 0 01-2.396-2.326 2.336 2.336 0 012.286-2.322 2.32 2.32 0 011.773.778c.124.14.33.17.492.08l1.638-.919a.406.406 0 00.206-.351v-.1a.404.404 0 00-.277-.381 2.326 2.326 0 01.844-4.53 2.333 2.333 0 012.206 2.152 2.322 2.322 0 01-1.731 2.419.405.405 0 00-.308.39v.017c0 .14.074.269.192.343l1.721 1.058a.4.4 0 00.522-.088 2.324 2.324 0 011.87-.87 2.326 2.326 0 11-.179 4.65 2.332 2.332 0 01-2.194-2.554.4.4 0 00-.192-.385zm-6.547 6.033a5.421 5.421 0 01-5.423-5.422 5.421 5.421 0 016.46-5.324 3.49 3.49 0 001.074 2.421A3.562 3.562 0 0011.468 14a3.59 3.59 0 000 7.179 3.584 3.584 0 003.33-2.26c.171.746.487 1.435.913 2.043a5.41 5.41 0 01-4.246 2.05zm9.056 0a5.424 5.424 0 01-5.411-5.054 5.885 5.885 0 001.841-.011 3.59 3.59 0 104.562-3.807 5.797 5.797 0 00.338-1.808 5.424 5.424 0 01-1.33 10.68z" fill="#FFF"/></svg>
